X: 39461
T: Tarbolton, The
R: reel
M: 4/4
K: Edorian
A|:Beed e2 BA|GBAF GE E2|Addc d2 AG|FGAG FDFA|
Beed e3f|(3gfe fd edBA|GB B2 FA A2|(3BAG AF GE E2:|
g2 ef (3gfe be|(3gfe be gfef|d3e fefg|afdf gfed|
B2 GB A2 GA|Beef gfed|B2 BG A2 GA|(3BAG AF GE E2:|

